!!!OTL: WENN DIE BETTELLEUTE TANZEN
!!!ARE: Europa, Mitteleuropa, Deutschland
!!!SCT: E0982
!!!YEM: Copyright 1995, estate of Helmut Schaffrath.
**kern
*ICvox
*Ivox
*M3/4
*k[b-]
*F:
=1
{8.F
16E
8F
8G
8A
8B-
=2
4c
4.c
8r}
=3
{8c
8d
8c
8B-
8A
8G
=4
4F
4.F
8r}
=5
{4c
2c
=6
4d
2d}
=7
{4e
4e
4e
=8
8f
16r
16c
8A
8c
4f}
=9
{8.c
16c
8c
8c
4c
=10
8.d
16d
8d
8d
4d}
=11
{8e
8e
8e
8e
8d
8e
=12
4f
4f
4r}
==
!!!AGN: Tanz - Lied, Reigen, Bettler - Lied
!!!ONB: ESAC (Essen Associative Code) Database: ERK2
!!!AMT: simple triple
!!!AIN: vox
!!!EED: Helmut Schaffrath
!!!EEV: 1.0
*-
